X:1093
T:Polska efter Snygg Olle
T:(SvL Dalarna 1093)
R:Polska
O:Rättvik, Dalarna
S:Snygg Olle
S:Höök Olle
B:Svenska Låtar Dalarna
Z:Till abc Jonas Brunskog
M:3/4
L:1/8
Q:1/4=138
K:D
vA-|L[AA]d dF Ad|d(f{gf}) fd ef|{ga}g2 gf ed|(c{dc})B AG FA-|
LAd dF Ad|d(f{gf}) fd ef|{ga}g2 gf ed|1 ce a3:|2ce a4||
|:v{gf}g2 gb bg|((g{ag})f) df af|f(e/d/ c/)d/e/f/ ge|d2 ({fg}f2{ef}) [aA]2|
{gf}g2 gb bg|(g{ag})f df af|fe/d/ (c/d/)e/f/ ge| (c{dc})(B/c/) [dD]4:|

